;FLAVOR:Marlin
;TIME:1641
;Filament used: 2.60508m
;Layer height: 0.3
;MINX:-41.071
;MINY:-18.752
;MINZ:0.3
;MAXX:41.071
;MAXY:18.752
;MAXZ:15
;Generated with Cura_SteamEngine 5.2.2
M82 ;absolute extrusion mode
M140 S0
M104 S200 T0
M104 S0 T1
M107
G90
G28
M132 X Y Z A B
G1 Z50.00 F400
G161 X Y F3300
M6 T0
M907 X100 Y100 Z40 A80 B20
M108 T0
G1 Z.20 F400
G92 E0
G92 E0
G1 F1800 E-1.3
;LAYER_COUNT:50
;LAYER:0
M106 S255
G0 F3000 X-30.5 Y18.752 Z0.3
;TYPE:SKIRT
G1 F1800 E0
G1 F1500 X-31.034 Y18.734 E0.03519
G1 X-31.463 Y18.705 E0.0635
G1 X-32.253 Y18.611 E0.1159
G1 X-32.839 Y18.489 E0.15531
G1 X-33.169 Y18.407 E0.17771
G1 X-34.027 Y18.141 E0.23686
G1 X-34.354 Y18.019 E0.25985
G1 X-35.128 Y17.683 E0.31542
G1 X-35.334 Y17.58 E0.33058
G1 X-35.943 Y17.241 E0.37648
G1 X-36.138 Y17.121 E0.39156
G1 X-36.79 Y16.673 E0.44366
G1 X-37.005 Y16.509 E0.46147
G1 X-37.638 Y15.972 E0.51613
G1 X-37.905 Y15.72 E0.54031
G1 X-38.678 Y14.877 E0.61563
G1 X-38.857 Y14.651 E0.63462
G1 X-39.348 Y13.958 E0.69055
G1 X-39.534 Y13.663 E0.71352
G1 X-40.033 Y12.74 E0.78262
G1 X-40.177 Y12.426 E0.80536
G1 X-40.505 Y11.588 E0.86463
G1 X-40.577 Y11.368 E0.87987
G1 X-40.754 Y10.744 E0.92259
G1 X-40.807 Y10.522 E0.93762
G1 X-40.962 Y9.663 E0.9951
G1 X-41.005 Y9.318 E1.018
G1 X-41.066 Y8.34 E1.08253
G1 X-41.071 Y-8.179 E2.17039
G1 X-41.057 Y-8.646 E2.20116
G1 X-41.039 Y-8.952 E2.22134
G1 X-40.952 Y-9.745 E2.27388
G1 X-40.915 Y-9.975 E2.28922
G1 X-40.769 Y-10.678 E2.3365
G1 X-40.712 Y-10.901 E2.35166
G1 X-40.469 Y-11.683 E2.40559
G1 X-40.349 Y-12.008 E2.42841
G1 X-40.014 Y-12.785 E2.48413
G1 X-39.883 Y-13.049 E2.50354
G1 X-39.494 Y-13.744 E2.55599
G1 X-39.234 Y-14.131 E2.58669
G1 X-39.002 Y-14.456 E2.61299
G1 X-38.472 Y-15.12 E2.66894
G1 X-38.318 Y-15.293 E2.68419
G1 X-37.863 Y-15.763 E2.72727
G1 X-37.696 Y-15.922 E2.74245
G1 X-37.128 Y-16.414 E2.79194
G1 X-36.946 Y-16.557 E2.80718
G1 X-36.363 Y-16.974 E2.85439
G1 X-36.05 Y-17.177 E2.87896
G1 X-35.361 Y-17.576 E2.93139
G1 X-34.731 Y-17.865 E2.97704
G1 X-34.324 Y-18.031 E3.00598
G1 X-33.449 Y-18.33 E3.06688
G1 X-33.229 Y-18.391 E3.08191
G1 X-32.64 Y-18.53 E3.12177
G1 X-32.411 Y-18.575 E3.13714
G1 X-31.614 Y-18.69 E3.19017
G1 X-31.344 Y-18.715 E3.20802
G1 X-30.614 Y-18.749 E3.25615
G1 X30.5 Y-18.752 E7.28082
G1 X31.034 Y-18.734 E7.316
G1 X31.463 Y-18.705 E7.34432
G1 X32.253 Y-18.611 E7.39671
G1 X32.839 Y-18.489 E7.43613
G1 X33.169 Y-18.407 E7.45852
G1 X34.027 Y-18.141 E7.51768
G1 X34.354 Y-18.019 E7.54066
G1 X35.128 Y-17.683 E7.59623
G1 X35.334 Y-17.58 E7.6114
G1 X35.943 Y-17.241 E7.6573
G1 X36.138 Y-17.121 E7.67238
G1 X36.79 Y-16.673 E7.72447
G1 X37.005 Y-16.509 E7.74228
G1 X37.627 Y-15.983 E7.79593
G1 X37.894 Y-15.732 E7.82006
G1 X38.691 Y-14.861 E7.89781
G1 X38.869 Y-14.635 E7.91675
G1 X39.343 Y-13.965 E7.9708
G1 X39.53 Y-13.669 E7.99386
G1 X40.034 Y-12.739 E8.06352
G1 X40.177 Y-12.427 E8.08612
G1 X40.497 Y-11.611 E8.14385
G1 X40.57 Y-11.39 E8.15917
G1 X40.755 Y-10.737 E8.20387
G1 X40.808 Y-10.514 E8.21896
G1 X40.962 Y-9.663 E8.27592
G1 X41.005 Y-9.318 E8.29881
G1 X41.066 Y-8.34 E8.36334
G1 X41.071 Y8.179 E9.4512
G1 X41.054 Y8.705 E9.48586
G1 X41.026 Y9.127 E9.51371
G1 X40.933 Y9.918 E9.56616
G1 X40.815 Y10.49 E9.60463
G1 X40.737 Y10.808 E9.62619
G1 X40.495 Y11.609 E9.68129
G1 X40.381 Y11.925 E9.70342
G1 X40.077 Y12.652 E9.75531
G1 X39.98 Y12.855 E9.77013
G1 X39.544 Y13.648 E9.82972
G1 X39.364 Y13.935 E9.85203
G1 X38.869 Y14.636 E9.90855
G1 X38.73 Y14.812 E9.92332
G1 X38.305 Y15.307 E9.96628
G1 X38.151 Y15.472 E9.98114
G1 X37.708 Y15.911 E10.02222
G1 X37.543 Y16.062 E10.03695
G1 X36.998 Y16.517 E10.0837
G1 X36.817 Y16.655 E10.09869
G1 X36.131 Y17.123 E10.15338
G1 X35.845 Y17.297 E10.17542
G1 X34.948 Y17.767 E10.24211
G1 X34.64 Y17.904 E10.26431
G1 X33.649 Y18.268 E10.33384
G1 X33.325 Y18.363 E10.35607
G1 X32.495 Y18.559 E10.41224
G1 X32.233 Y18.606 E10.42977
G1 X31.395 Y18.71 E10.48538
G1 X31.099 Y18.731 E10.50492
G1 X30.539 Y18.751 E10.54182
G1 X-30.5 Y18.752 E14.56155
G0 F3000 X-30.5 Y18.272
G1 F1500 X-31.002 Y18.255 E14.59463
G1 X-31.431 Y18.226 E14.62294
G1 X-32.197 Y18.134 E14.67375
G1 X-32.723 Y18.023 E14.70915
G1 X-33.053 Y17.941 E14.73155
G1 X-33.86 Y17.692 E14.78716
G1 X-34.187 Y17.57 E14.81015
G1 X-34.913 Y17.254 E14.86229
G1 X-35.119 Y17.151 E14.87746
G1 X-35.691 Y16.832 E14.92059
G1 X-35.886 Y16.712 E14.93567
G1 X-36.499 Y16.291 E14.98464
G1 X-36.714 Y16.127 E15.00245
G1 X-37.309 Y15.623 E15.0538
G1 X-37.576 Y15.371 E15.07798
G1 X-38.301 Y14.579 E15.14869
G1 X-38.48 Y14.353 E15.16768
G1 X-38.941 Y13.702 E15.22021
G1 X-39.127 Y13.407 E15.24317
G1 X-39.597 Y12.54 E15.30812
G1 X-39.741 Y12.226 E15.33087
G1 X-40.049 Y11.439 E15.38653
G1 X-40.121 Y11.219 E15.40177
G1 X-40.287 Y10.633 E15.44188
G1 X-40.34 Y10.411 E15.45691
G1 X-40.486 Y9.603 E15.51098
G1 X-40.529 Y9.258 E15.53388
G1 X-40.586 Y8.34 E15.59445
G1 X-40.591 Y-8.179 E16.68231
G1 X-40.578 Y-8.618 E16.71123
G1 X-40.56 Y-8.924 E16.73142
G1 X-40.479 Y-9.669 E16.78077
G1 X-40.442 Y-9.899 E16.79611
G1 X-40.304 Y-10.559 E16.84052
G1 X-40.247 Y-10.782 E16.85567
G1 X-40.018 Y-11.517 E16.90637
G1 X-39.898 Y-11.842 E16.92919
G1 X-39.584 Y-12.572 E16.98152
G1 X-39.453 Y-12.836 E17.00093
G1 X-39.074 Y-13.508 E17.05174
G1 X-38.843 Y-13.852 E17.07902
G1 X-38.611 Y-14.177 E17.10532
G1 X-38.113 Y-14.801 E17.1579
G1 X-37.959 Y-14.974 E17.17315
G1 X-37.532 Y-15.415 E17.21357
G1 X-37.365 Y-15.574 E17.22876
G1 X-36.832 Y-16.036 E17.27521
G1 X-36.65 Y-16.179 E17.29045
G1 X-36.101 Y-16.571 E17.33488
G1 X-35.788 Y-16.774 E17.35945
G1 X-35.12 Y-17.16 E17.41025
G1 X-34.55 Y-17.421 E17.45154
G1 X-34.143 Y-17.587 E17.48049
G1 X-33.321 Y-17.868 E17.5377
G1 X-33.101 Y-17.929 E17.55273
G1 X-32.548 Y-18.059 E17.59014
G1 X-32.319 Y-18.104 E17.60551
G1 X-31.57 Y-18.212 E17.65535
G1 X-31.3 Y-18.237 E17.6732
G1 X-30.614 Y-18.269 E17.71843
G1 X30.5 Y-18.272 E21.74309
G1 X31.002 Y-18.255 E21.77617
G1 X31.431 Y-18.226 E21.80449
G1 X32.197 Y-18.134 E21.8553
G1 X32.723 Y-18.023 E21.8907
G1 X33.053 Y-17.941 E21.91309
G1 X33.86 Y-17.692 E21.96871
G1 X34.187 Y-17.57 E21.99169
G1 X34.913 Y-17.254 E22.04384
G1 X35.119 Y-17.151 E22.05901
G1 X35.691 Y-16.832 E22.10214
G1 X35.886 Y-16.712 E22.11721
G1 X36.499 Y-16.291 E22.16619
G1 X36.714 Y-16.127 E22.184
G1 X37.298 Y-15.633 E22.23437
G1 X37.565 Y-15.382 E22.2585
G1 X38.314 Y-14.564 E22.33154
G1 X38.492 Y-14.338 E22.35049
G1 X38.937 Y-13.709 E22.40123
G1 X39.124 Y-13.413 E22.42429
G1 X39.597 Y-12.539 E22.48973
G1 X39.74 Y-12.227 E22.51233
G1 X40.042 Y-11.461 E22.56656
G1 X40.115 Y-11.24 E22.58189
G1 X40.288 Y-10.626 E22.62389
G1 X40.341 Y-10.403 E22.63899
G1 X40.486 Y-9.603 E22.69253
G1 X40.529 Y-9.258 E22.71543
G1 X40.586 Y-8.34 E22.776
G1 X40.591 Y8.179 E23.86386
G1 X40.575 Y8.674 E23.89647
G1 X40.547 Y9.096 E23.92433
G1 X40.456 Y9.861 E23.97506
G1 X40.349 Y10.375 E24.00964
G1 X40.271 Y10.693 E24.0312
G1 X40.044 Y11.446 E24.08299
G1 X39.93 Y11.762 E24.10511
G1 X39.644 Y12.445 E24.15388
G1 X39.547 Y12.648 E24.16869
G1 X39.137 Y13.393 E24.2247
G1 X38.957 Y13.68 E24.24701
G1 X38.493 Y14.338 E24.30003
G1 X38.354 Y14.514 E24.3148
G1 X37.954 Y14.979 E24.35519
G1 X37.8 Y15.144 E24.37005
G1 X37.384 Y15.557 E24.40866
G1 X37.219 Y15.708 E24.42339
G1 X36.707 Y16.136 E24.46733
G1 X36.526 Y16.274 E24.48232
G1 X35.882 Y16.713 E24.53365
G1 X35.596 Y16.887 E24.5557
G1 X34.753 Y17.329 E24.61838
G1 X34.445 Y17.466 E24.64058
G1 X33.514 Y17.807 E24.70588
G1 X33.19 Y17.902 E24.72811
G1 X32.411 Y18.086 E24.78082
G1 X32.149 Y18.133 E24.79835
G1 X31.362 Y18.231 E24.85058
G1 X31.066 Y18.252 E24.87012
G1 X30.539 Y18.271 E24.90485
G1 X-30.5 Y18.272 E28.92458
G0 F3000 X-30.5 Y17.792
G1 F1500 X-30.969 Y17.776 E28.95548
G1 X-31.398 Y17.747 E28.9838
G1 X-32.139 Y17.657 E29.03296
G1 X-32.607 Y17.558 E29.06446
G1 X-32.937 Y17.476 E29.08685
G1 X-33.692 Y17.242 E29.13891
G1 X-34.019 Y17.12 E29.16189
G1 X-34.699 Y16.824 E29.21073
G1 X-34.905 Y16.721 E29.2259
G1 X-35.44 Y16.424 E29.26619
G1 X-35.635 Y16.304 E29.28127
G1 X-36.208 Y15.91 E29.32707
G1 X-36.423 Y15.746 E29.34488
G1 X-36.979 Y15.274 E29.39291
G1 X-37.246 Y15.022 E29.41708
G1 X-37.925 Y14.281 E29.48327
G1 X-38.104 Y14.055 E29.50226
G1 X-38.535 Y13.446 E29.55139
G1 X-38.721 Y13.151 E29.57436
G1 X-39.16 Y12.34 E29.63509
G1 X-39.304 Y12.026 E29.65784
G1 X-39.593 Y11.29 E29.70991
G1 X-39.665 Y11.07 E29.72515
G1 X-39.82 Y10.521 E29.76272
G1 X-39.873 Y10.299 E29.77775
G1 X-40.01 Y9.544 E29.82829
G1 X-40.053 Y9.199 E29.85118
G1 X-40.106 Y8.34 E29.90786
G1 X-40.111 Y-8.179 E30.99572
G1 X-40.099 Y-8.59 E31.0228
G1 X-40.081 Y-8.896 E31.04298
G1 X-40.005 Y-9.592 E31.08909
G1 X-39.968 Y-9.822 E31.10443
G1 X-39.839 Y-10.441 E31.14607
G1 X-39.782 Y-10.664 E31.16123
G1 X-39.568 Y-11.351 E31.20862
G1 X-39.448 Y-11.676 E31.23143
G1 X-39.154 Y-12.359 E31.2804
G1 X-39.023 Y-12.623 E31.29981
G1 X-38.453 Y-13.573 E31.37277
G1 X-38.221 Y-13.898 E31.39907
G1 X-37.755 Y-14.482 E31.44827
G1 X-37.601 Y-14.655 E31.46352
G1 X-37.201 Y-15.068 E31.50138
G1 X-37.034 Y-15.227 E31.51657
G1 X-36.535 Y-15.659 E31.56003
G1 X-36.353 Y-15.802 E31.57528
G1 X-35.84 Y-16.168 E31.61678
G1 X-35.527 Y-16.371 E31.64135
G1 X-34.881 Y-16.743 E31.69044
G1 X-34.369 Y-16.977 E31.72751
G1 X-33.962 Y-17.143 E31.75646
G1 X-33.193 Y-17.405 E31.80996
G1 X-32.973 Y-17.466 E31.82499
G1 X-32.455 Y-17.588 E31.86004
G1 X-32.226 Y-17.633 E31.87541
G1 X-31.526 Y-17.734 E31.92198
G1 X-31.256 Y-17.759 E31.93984
G1 X-30.614 Y-17.789 E31.98217
G1 X30.5 Y-17.792 E36.00683
G1 X30.969 Y-17.776 E36.03774
G1 X31.398 Y-17.747 E36.06605
G1 X32.139 Y-17.657 E36.11521
G1 X32.607 Y-17.558 E36.14671
G1 X32.937 Y-17.476 E36.16911
G1 X33.692 Y-17.242 E36.22116
G1 X34.019 Y-17.12 E36.24414
G1 X34.699 Y-16.824 E36.29298
G1 X34.905 Y-16.721 E36.30815
G1 X35.44 Y-16.424 E36.34845
G1 X35.635 Y-16.304 E36.36353
G1 X36.208 Y-15.91 E36.40932
G1 X36.423 Y-15.746 E36.42713
G1 X36.969 Y-15.283 E36.47427
G1 X37.236 Y-15.032 E36.49841
G1 X37.937 Y-14.267 E36.56674
G1 X38.115 Y-14.041 E36.58568
G1 X38.531 Y-13.452 E36.63317
G1 X38.718 Y-13.156 E36.65623
G1 X39.161 Y-12.339 E36.71743
G1 X39.304 Y-12.027 E36.74004
G1 X39.586 Y-11.31 E36.79077
G1 X39.659 Y-11.089 E36.8061
G1 X39.821 Y-10.515 E36.84538
G1 X39.874 Y-10.292 E36.86047
G1 X40.01 Y-9.544 E36.91054
G1 X40.053 Y-9.199 E36.93344
G1 X40.106 Y-8.34 E36.99011
G1 X40.111 Y8.179 E38.07797
G1 X40.096 Y8.642 E38.10848
G1 X40.068 Y9.064 E38.13633
G1 X39.979 Y9.804 E38.18542
G1 X39.883 Y10.261 E38.21617
G1 X39.805 Y10.579 E38.23773
G1 X39.592 Y11.283 E38.28617
G1 X39.478 Y11.599 E38.30829
G1 X39.211 Y12.238 E38.3539
G1 X39.114 Y12.441 E38.36872
G1 X38.73 Y13.138 E38.42112
G1 X38.55 Y13.425 E38.44343
G1 X38.116 Y14.041 E38.49306
G1 X37.977 Y14.217 E38.50783
G1 X37.603 Y14.652 E38.54561
G1 X37.449 Y14.817 E38.56047
G1 X37.06 Y15.202 E38.59651
G1 X36.895 Y15.353 E38.61124
G1 X36.416 Y15.754 E38.65238
G1 X36.235 Y15.892 E38.66737
G1 X35.633 Y16.303 E38.71537
G1 X35.347 Y16.477 E38.73742
G1 X34.558 Y16.89 E38.79607
G1 X34.25 Y17.027 E38.81827
G1 X33.379 Y17.347 E38.87937
G1 X33.055 Y17.442 E38.90161
G1 X32.326 Y17.614 E38.95094
G1 X32.064 Y17.661 E38.96847
G1 X31.328 Y17.753 E39.01731
G1 X31.032 Y17.774 E39.03685
G1 X30.539 Y17.791 E39.06934
G1 X-30.5 Y17.792 E43.08907
G0 F3000 X-30.5 Y17.312
G1 F1500 X-30.937 Y17.297 E43.11786
G1 X-31.366 Y17.268 E43.14618
G1 X-32.08 Y17.18 E43.19356
G1 X-32.492 Y17.092 E43.2213
G1 X-32.822 Y17.01 E43.24369
G1 X-33.524 Y16.792 E43.2921
G1 X-33.851 Y16.67 E43.31509
G1 X-34.484 Y16.395 E43.36054
G1 X-34.69 Y16.292 E43.3757
G1 X-35.188 Y16.015 E43.41323
G1 X-35.383 Y15.895 E43.42831
G1 X-35.917 Y15.528 E43.47098
G1 X-36.132 Y15.364 E43.48879
G1 X-36.65 Y14.925 E43.5335
G1 X-36.917 Y14.673 E43.55768
G1 X-37.549 Y13.983 E43.6193
G1 X-37.728 Y13.757 E43.63829
G1 X-38.129 Y13.19 E43.68402
G1 X-38.315 Y12.895 E43.70699
G1 X-38.724 Y12.14 E43.76354
G1 X-38.868 Y11.826 E43.78629
G1 X-39.137 Y11.141 E43.83475
G1 X-39.209 Y10.921 E43.85
G1 X-39.353 Y10.41 E43.88496
G1 X-39.406 Y10.188 E43.89999
G1 X-39.533 Y9.484 E43.9471
G1 X-39.576 Y9.139 E43.96999
G1 X-39.626 Y8.34 E44.02272
G1 X-39.631 Y-8.179 E45.11058
G1 X-39.62 Y-8.562 E45.13581
G1 X-39.602 Y-8.868 E45.15599
G1 X-39.531 Y-9.516 E45.19892
G1 X-39.494 Y-9.746 E45.21427
G1 X-39.374 Y-10.322 E45.25301
G1 X-39.317 Y-10.545 E45.26817
G1 X-39.118 Y-11.185 E45.31231
G1 X-38.998 Y-11.51 E45.33512
G1 X-38.724 Y-12.145 E45.38067
G1 X-38.593 Y-12.409 E45.40008
G1 X-38.062 Y-13.294 E45.46804
G1 X-37.83 Y-13.619 E45.49434
G1 X-37.396 Y-14.163 E45.54017
G1 X-37.242 Y-14.336 E45.55542
G1 X-36.87 Y-14.72 E45.59063
G1 X-36.703 Y-14.879 E45.60582
G1 X-36.238 Y-15.281 E45.6463
G1 X-36.056 Y-15.424 E45.66154
G1 X-35.579 Y-15.766 E45.70019
G1 X-35.266 Y-15.969 E45.72476
G1 X-34.641 Y-16.326 E45.77216
G1 X-34.187 Y-16.532 E45.80499
G1 X-33.78 Y-16.698 E45.83394
G1 X-33.064 Y-16.942 E45.88376
G1 X-32.844 Y-17.003 E45.89879
G1 X-32.362 Y-17.117 E45.93141
G1 X-32.133 Y-17.162 E45.94678
G1 X-31.481 Y-17.256 E45.99016
G1 X-31.211 Y-17.281 E46.00802
G1 X-30.614 Y-17.309 E46.04737
G1 X30.5 Y-17.312 E50.07204
G1 X30.937 Y-17.297 E50.10084
G1 X31.366 Y-17.268 E50.12915
G1 X32.08 Y-17.18 E50.17653
G1 X32.492 Y-17.092 E50.20427
G1 X32.822 Y-17.01 E50.22667
G1 X33.524 Y-16.792 E50.27507
G1 X33.851 Y-16.67 E50.29806
G1 X34.484 Y-16.395 E50.34351
G1 X34.69 Y-16.292 E50.35868
G1 X35.188 Y-16.015 E50.3962
G1 X35.383 Y-15.895 E50.41128
G1 X35.917 Y-15.528 E50.45395
G1 X36.132 Y-15.364 E50.47176
G1 X36.64 Y-14.933 E50.51563
G1 X36.907 Y-14.682 E50.53977
G1 X37.56 Y-13.97 E50.60339
G1 X37.738 Y-13.744 E50.62234
G1 X38.125 Y-13.196 E50.66652
G1 X38.312 Y-12.9 E50.68957
G1 X38.725 Y-12.139 E50.74659
G1 X38.868 Y-11.827 E50.7692
G1 X39.13 Y-11.159 E50.81645
G1 X39.203 Y-10.938 E50.83178
G1 X39.354 Y-10.404 E50.86832
G1 X39.407 Y-10.181 E50.88342
G1 X39.533 Y-9.484 E50.93006
G1 X39.576 Y-9.139 E50.95296
G1 X39.626 Y-8.34 E51.00568
G1 X39.631 Y8.179 E52.09354
G1 X39.617 Y8.61 E52.12194
G1 X39.589 Y9.032 E52.14979
G1 X39.501 Y9.746 E52.19717
G1 X39.416 Y10.147 E52.22416
G1 X39.338 Y10.465 E52.24572
G1 X39.14 Y11.12 E52.29079
G1 X39.026 Y11.436 E52.31291
G1 X38.778 Y12.031 E52.35536
G1 X38.681 Y12.234 E52.37018
G1 X38.324 Y12.883 E52.41896
G1 X38.144 Y13.17 E52.44127
G1 X37.739 Y13.743 E52.48747
G1 X37.6 Y13.919 E52.50224
G1 X37.252 Y14.324 E52.53741
G1 X37.098 Y14.489 E52.55227
G1 X36.736 Y14.848 E52.58585
G1 X36.571 Y14.999 E52.60058
G1 X36.125 Y15.372 E52.63887
G1 X35.944 Y15.51 E52.65386
G1 X35.383 Y15.893 E52.69859
G1 X35.097 Y16.067 E52.72064
G1 X34.363 Y16.452 E52.77522
G1 X34.055 Y16.589 E52.79742
G1 X33.244 Y16.886 E52.8543
G1 X32.92 Y16.981 E52.87653
G1 X32.241 Y17.141 E52.92247
G1 X31.979 Y17.188 E52.94
G1 X31.294 Y17.274 E52.98547
G1 X30.998 Y17.295 E53.00501
G1 X30.539 Y17.311 E53.03525
G1 X-30.5 Y17.312 E57.05498
G0 F3000 X-30.5 Y16.832
G1 F1500 X-30.905 Y16.818 E57.08167
G1 X-31.334 Y16.789 E57.10998
G1 X-32.021 Y16.703 E57.15558
G1 X-32.376 Y16.626 E57.1795
G1 X-32.706 Y16.544 E57.20189
G1 X-33.356 Y16.342 E57.24672
G1 X-33.683 Y16.22 E57.2697
G1 X-34.269 Y15.966 E57.31176
G1 X-34.475 Y15.863 E57.32693
G1 X-34.937 Y15.606 E57.36175
G1 X-35.132 Y15.486 E57.37683
G1 X-35.626 Y15.147 E57.41628
G1 X-35.841 Y14.983 E57.43409
G1 X-36.32 Y14.575 E57.47553
G1 X-36.587 Y14.323 E57.4997
G1 X-37.172 Y13.685 E57.55671
G1 X-37.351 Y13.459 E57.5757
G1 X-37.723 Y12.934 E57.61807
G1 X-37.909 Y12.639 E57.64104
G1 X-38.288 Y11.94 E57.6934
G1 X-38.432 Y11.626 E57.71615
G1 X-38.68 Y10.991 E57.76104
G1 X-38.752 Y10.771 E57.77629
G1 X-38.886 Y10.298 E57.80866
G1 X-38.939 Y10.076 E57.82369
G1 X-39.057 Y9.425 E57.86726
G1 X-39.1 Y9.08 E57.89016
G1 X-39.146 Y8.34 E57.93899
G1 X-39.151 Y-8.179 E59.02685
G1 X-39.141 Y-8.533 E59.05017
G1 X-39.123 Y-8.839 E59.07035
G1 X-39.057 Y-9.44 E59.11017
G1 X-39.02 Y-9.67 E59.12551
G1 X-38.909 Y-10.203 E59.16137
G1 X-38.852 Y-10.426 E59.17652
G1 X-38.668 Y-11.018 E59.21735
G1 X-38.548 Y-11.343 E59.24016
G1 X-38.294 Y-11.932 E59.28241
G1 X-38.163 Y-12.196 E59.30181
G1 X-37.671 Y-13.015 E59.36473
G1 X-37.439 Y-13.34 E59.39103
G1 X-37.038 Y-13.843 E59.43339
