;FLAVOR:Marlin
;TIME:1640
;Filament used: 2.60737m
;Layer height: 0.3
;MINX:-18.752
;MINY:-41.071
;MINZ:0.3
;MAXX:18.752
;MAXY:41.071
;MAXZ:15
;Generated with Cura_SteamEngine 5.2.2
M82 ;absolute extrusion mode
M140 S0
M104 S200 T0
M104 S0 T1
M107
G90
G28
M132 X Y Z A B
G1 Z50.00 F400
G161 X Y F3300
M6 T0
M907 X100 Y100 Z40 A80 B20
M108 T0
G1 Z.20 F400
G92 E0
G92 E0
G1 F1800 E-1.3
;LAYER_COUNT:50
;LAYER:0
M106 S255
G0 F3000 X18.752 Y30.5 Z0.3
;TYPE:SKIRT
G1 F1800 E0
G1 F1500 X18.734 Y31.034 E0.03519
G1 X18.705 Y31.463 E0.0635
G1 X18.611 Y32.253 E0.1159
G1 X18.489 Y32.839 E0.15531
G1 X18.407 Y33.169 E0.17771
G1 X18.143 Y34.022 E0.23651
G1 X18.022 Y34.347 E0.25935
G1 X17.691 Y35.112 E0.31424
G1 X17.588 Y35.319 E0.32947
G1 X17.236 Y35.951 E0.37711
G1 X17.115 Y36.147 E0.39228
G1 X16.673 Y36.79 E0.44366
G1 X16.509 Y37.005 E0.46147
G1 X15.983 Y37.627 E0.51511
G1 X15.732 Y37.894 E0.53925
G1 X14.861 Y38.691 E0.617
G1 X14.635 Y38.869 E0.63594
G1 X13.965 Y39.343 E0.68999
G1 X13.669 Y39.53 E0.71305
G1 X12.739 Y40.034 E0.78271
G1 X12.427 Y40.177 E0.80531
G1 X11.601 Y40.501 E0.86374
G1 X11.379 Y40.574 E0.87913
G1 X10.744 Y40.754 E0.9226
G1 X10.522 Y40.807 E0.93763
G1 X9.657 Y40.963 E0.99551
G1 X9.31 Y41.006 E1.01854
G1 X8.338 Y41.066 E1.08267
G1 X-8.179 Y41.071 E2.1704
G1 X-8.705 Y41.054 E2.20506
G1 X-9.127 Y41.026 E2.23291
G1 X-9.918 Y40.933 E2.28536
G1 X-10.49 Y40.815 E2.32382
G1 X-10.808 Y40.737 E2.34538
G1 X-11.614 Y40.493 E2.40084
G1 X-11.932 Y40.378 E2.42311
G1 X-12.654 Y40.076 E2.47465
G1 X-12.857 Y39.979 E2.48947
G1 X-13.661 Y39.536 E2.54992
G1 X-13.947 Y39.356 E2.57217
G1 X-14.632 Y38.872 E2.62741
G1 X-14.807 Y38.734 E2.64209
G1 X-15.307 Y38.305 E2.68547
G1 X-15.472 Y38.151 E2.70034
G1 X-15.909 Y37.71 E2.74122
G1 X-16.061 Y37.544 E2.75604
G1 X-16.522 Y36.992 E2.80341
G1 X-16.659 Y36.812 E2.8183
G1 X-17.125 Y36.128 E2.87281
G1 X-17.3 Y35.84 E2.895
G1 X-17.768 Y34.946 E2.96146
G1 X-17.905 Y34.638 E2.98365
G1 X-18.272 Y33.638 E3.0538
G1 X-18.366 Y33.316 E3.0759
G1 X-18.559 Y32.495 E3.13144
G1 X-18.606 Y32.233 E3.14897
G1 X-18.71 Y31.397 E3.20444
G1 X-18.731 Y31.102 E3.22392
G1 X-18.751 Y30.54 E3.26095
G1 X-18.752 Y-30.5 E7.28075
G1 X-18.734 Y-31.034 E7.31593
G1 X-18.705 Y-31.463 E7.34425
G1 X-18.611 Y-32.253 E7.39664
G1 X-18.489 Y-32.839 E7.43606
G1 X-18.407 Y-33.169 E7.45846
G1 X-18.143 Y-34.022 E7.51726
G1 X-18.022 Y-34.347 E7.5401
G1 X-17.684 Y-35.126 E7.59602
G1 X-17.58 Y-35.334 E7.61133
G1 X-17.241 Y-35.943 E7.65723
G1 X-17.121 Y-36.138 E7.67231
G1 X-16.673 Y-36.79 E7.72441
G1 X-16.509 Y-37.005 E7.74222
G1 X-15.983 Y-37.627 E7.79586
G1 X-15.732 Y-37.894 E7.81999
G1 X-14.861 Y-38.691 E7.89774
G1 X-14.635 Y-38.869 E7.91669
G1 X-13.965 Y-39.343 E7.97074
G1 X-13.669 Y-39.53 E7.9938
G1 X-12.739 Y-40.034 E8.06346
G1 X-12.427 Y-40.177 E8.08606
G1 X-11.601 Y-40.501 E8.14449
G1 X-11.379 Y-40.574 E8.15988
G1 X-10.744 Y-40.754 E8.20334
G1 X-10.522 Y-40.807 E8.21838
G1 X-9.657 Y-40.963 E8.27626
G1 X-9.31 Y-41.006 E8.29929
G1 X-8.338 Y-41.066 E8.36342
G1 X8.179 Y-41.071 E9.45115
G1 X8.646 Y-41.057 E9.48191
G1 X8.952 Y-41.039 E9.5021
G1 X9.745 Y-40.952 E9.55464
G1 X9.975 Y-40.915 E9.56998
G1 X10.678 Y-40.769 E9.61726
G1 X10.901 Y-40.712 E9.63242
G1 X11.689 Y-40.467 E9.68677
G1 X12.016 Y-40.346 E9.70973
G1 X12.787 Y-40.013 E9.76503
G1 X13.049 Y-39.883 E9.7843
G1 X13.743 Y-39.494 E9.83669
G1 X14.131 Y-39.234 E9.86745
G1 X14.456 Y-39.002 E9.89374
G1 X15.12 Y-38.472 E9.94969
G1 X15.293 Y-38.318 E9.96495
G1 X15.763 Y-37.863 E10.00803
G1 X15.922 Y-37.696 E10.02321
G1 X16.414 Y-37.128 E10.0727
G1 X16.557 Y-36.946 E10.08794
G1 X16.974 Y-36.363 E10.13515
G1 X17.177 Y-36.05 E10.15971
G1 X17.576 Y-35.361 E10.21215
G1 X17.865 Y-34.731 E10.25779
G1 X18.031 Y-34.324 E10.28674
G1 X18.33 Y-33.449 E10.34763
G1 X18.391 Y-33.229 E10.36267
G1 X18.528 Y-32.653 E10.40166
G1 X18.573 Y-32.426 E10.4169
G1 X18.69 Y-31.616 E10.4708
G1 X18.715 Y-31.346 E10.48865
G1 X18.749 Y-30.616 E10.53678
G1 X18.752 Y30.5 E14.56158
G0 F3000 X18.272 Y30.5
G1 F1500 X18.255 Y31.002 E14.59466
G1 X18.226 Y31.431 E14.62297
G1 X18.134 Y32.197 E14.67378
G1 X18.023 Y32.723 E14.70918
G1 X17.941 Y33.053 E14.73157
G1 X17.693 Y33.855 E14.78686
G1 X17.572 Y34.18 E14.8097
G1 X17.261 Y34.898 E14.86123
G1 X17.158 Y35.105 E14.87645
G1 X16.828 Y35.699 E14.9212
G1 X16.707 Y35.895 E14.93637
G1 X16.291 Y36.499 E14.98467
G1 X16.127 Y36.714 E15.00248
G1 X15.633 Y37.298 E15.05285
G1 X15.382 Y37.565 E15.07698
G1 X14.564 Y38.314 E15.15002
G1 X14.338 Y38.492 E15.16897
G1 X13.709 Y38.937 E15.21971
G1 X13.413 Y39.124 E15.24277
G1 X12.539 Y39.597 E15.30821
G1 X12.227 Y39.74 E15.33081
G1 X11.451 Y40.045 E15.38572
G1 X11.229 Y40.118 E15.40111
G1 X10.633 Y40.287 E15.44191
G1 X10.411 Y40.34 E15.45694
G1 X9.598 Y40.487 E15.51135
G1 X9.251 Y40.53 E15.53438
G1 X8.338 Y40.586 E15.59461
G1 X-8.179 Y40.591 E16.68234
G1 X-8.674 Y40.575 E16.71496
G1 X-9.096 Y40.547 E16.74281
G1 X-9.861 Y40.456 E16.79354
G1 X-10.375 Y40.349 E16.82812
G1 X-10.693 Y40.271 E16.84968
G1 X-11.451 Y40.042 E16.90183
G1 X-11.769 Y39.927 E16.9241
G1 X-12.447 Y39.643 E16.97251
G1 X-12.65 Y39.546 E16.98732
G1 X-13.405 Y39.13 E17.04409
G1 X-13.691 Y38.95 E17.06635
G1 X-14.335 Y38.495 E17.11827
G1 X-14.51 Y38.357 E17.13295
G1 X-14.979 Y37.954 E17.17367
G1 X-15.144 Y37.8 E17.18854
G1 X-15.555 Y37.385 E17.227
G1 X-15.707 Y37.219 E17.24182
G1 X-16.14 Y36.701 E17.28628
G1 X-16.277 Y36.521 E17.30118
G1 X-16.715 Y35.879 E17.35236
G1 X-16.89 Y35.591 E17.37456
G1 X-17.33 Y34.751 E17.437
G1 X-17.467 Y34.443 E17.4592
G1 X-17.811 Y33.504 E17.52506
G1 X-17.905 Y33.182 E17.54715
G1 X-18.086 Y32.411 E17.5993
G1 X-18.133 Y32.149 E17.61683
G1 X-18.231 Y31.363 E17.669
G1 X-18.252 Y31.068 E17.68847
G1 X-18.271 Y30.54 E17.72327
G1 X-18.272 Y-30.5 E21.74306
G1 X-18.255 Y-31.002 E21.77614
G1 X-18.226 Y-31.431 E21.80445
G1 X-18.134 Y-32.197 E21.85526
G1 X-18.023 Y-32.723 E21.89067
G1 X-17.941 Y-33.053 E21.91306
G1 X-17.693 Y-33.855 E21.96834
G1 X-17.572 Y-34.18 E21.99118
G1 X-17.255 Y-34.911 E22.04365
G1 X-17.151 Y-35.119 E22.05897
G1 X-16.832 Y-35.691 E22.1021
G1 X-16.712 Y-35.886 E22.11718
G1 X-16.291 Y-36.499 E22.16615
G1 X-16.127 Y-36.714 E22.18396
G1 X-15.633 Y-37.298 E22.23433
G1 X-15.382 Y-37.565 E22.25846
G1 X-14.564 Y-38.314 E22.3315
G1 X-14.338 Y-38.492 E22.35045
G1 X-13.709 Y-38.937 E22.40119
G1 X-13.413 Y-39.124 E22.42425
G1 X-12.539 Y-39.597 E22.48969
G1 X-12.227 Y-39.74 E22.51229
G1 X-11.451 Y-40.045 E22.5672
G1 X-11.229 Y-40.118 E22.58259
G1 X-10.633 Y-40.287 E22.62339
G1 X-10.411 Y-40.34 E22.63842
G1 X-9.598 Y-40.487 E22.69283
G1 X-9.251 Y-40.53 E22.71586
G1 X-8.338 Y-40.586 E22.77609
G1 X8.179 Y-40.591 E23.86382
G1 X8.618 Y-40.578 E23.89275
G1 X8.924 Y-40.56 E23.91293
G1 X9.669 Y-40.479 E23.96228
G1 X9.899 Y-40.442 E23.97763
G1 X10.559 Y-40.304 E24.02203
G1 X10.782 Y-40.247 E24.03719
G1 X11.522 Y-40.017 E24.08822
G1 X11.849 Y-39.896 E24.11118
G1 X12.574 Y-39.583 E24.16319
G1 X12.836 Y-39.453 E24.18245
G1 X13.508 Y-39.075 E24.23322
G1 X13.852 Y-38.843 E24.26055
G1 X14.177 Y-38.611 E24.28684
G1 X14.801 Y-38.113 E24.33942
G1 X14.974 Y-37.959 E24.35467
G1 X15.415 Y-37.532 E24.3951
G1 X15.574 Y-37.365 E24.41028
G1 X16.036 Y-36.832 E24.45673
G1 X16.179 Y-36.65 E24.47198
G1 X16.571 Y-36.101 E24.5164
G1 X16.774 Y-35.788 E24.54097
G1 X17.16 Y-35.12 E24.59178
G1 X17.421 Y-34.55 E24.63306
G1 X17.587 Y-34.143 E24.66201
G1 X17.868 Y-33.321 E24.71922
G1 X17.929 Y-33.101 E24.73425
G1 X18.057 Y-32.56 E24.77086
G1 X18.102 Y-32.333 E24.7861
G1 X18.212 Y-31.572 E24.83674
G1 X18.237 Y-31.302 E24.8546
G1 X18.269 Y-30.616 E24.89982
G1 X18.272 Y30.5 E28.92462
G0 F3000 X17.792 Y30.5
G1 F1500 X17.776 Y30.969 E28.95553
G1 X17.747 Y31.398 E28.98384
G1 X17.657 Y32.139 E29.033
G1 X17.558 Y32.607 E29.0645
G1 X17.476 Y32.937 E29.08689
G1 X17.244 Y33.687 E29.13859
G1 X17.123 Y34.012 E29.16143
G1 X16.831 Y34.685 E29.20975
G1 X16.728 Y34.892 E29.22497
G1 X16.419 Y35.447 E29.2668
G1 X16.298 Y35.643 E29.28197
G1 X15.91 Y36.208 E29.32711
G1 X15.746 Y36.423 E29.34492
G1 X15.283 Y36.969 E29.39206
G1 X15.032 Y37.236 E29.4162
G1 X14.267 Y37.937 E29.48453
G1 X14.041 Y38.115 E29.50347
G1 X13.452 Y38.531 E29.55096
G1 X13.156 Y38.718 E29.57402
G1 X12.339 Y39.161 E29.63522
G1 X12.027 Y39.304 E29.65782
G1 X11.301 Y39.589 E29.70919
G1 X11.079 Y39.662 E29.72458
G1 X10.521 Y39.82 E29.76277
G1 X10.299 Y39.873 E29.7778
G1 X9.539 Y40.01 E29.82866
G1 X9.192 Y40.053 E29.85168
G1 X8.338 Y40.106 E29.90803
G1 X-8.179 Y40.111 E30.99576
G1 X-8.642 Y40.096 E31.02627
G1 X-9.064 Y40.068 E31.05412
G1 X-9.804 Y39.979 E31.1032
G1 X-10.261 Y39.883 E31.13395
G1 X-10.579 Y39.805 E31.15552
G1 X-11.288 Y39.59 E31.20431
G1 X-11.606 Y39.475 E31.22658
G1 X-12.24 Y39.21 E31.27183
G1 X-12.443 Y39.113 E31.28665
G1 X-13.149 Y38.723 E31.33976
G1 X-13.435 Y38.543 E31.36202
G1 X-14.038 Y38.118 E31.4106
G1 X-14.213 Y37.98 E31.42528
G1 X-14.652 Y37.603 E31.46338
G1 X-14.817 Y37.449 E31.47825
G1 X-15.201 Y37.061 E31.5142
G1 X-15.353 Y36.895 E31.52902
G1 X-15.758 Y36.41 E31.57063
G1 X-15.895 Y36.23 E31.58553
G1 X-16.305 Y35.629 E31.63344
G1 X-16.48 Y35.341 E31.65563
G1 X-16.891 Y34.556 E31.71399
G1 X-17.028 Y34.248 E31.73618
G1 X-17.35 Y33.369 E31.79783
G1 X-17.444 Y33.047 E31.81992
G1 X-17.614 Y32.326 E31.86871
G1 X-17.661 Y32.064 E31.88624
G1 X-17.752 Y31.329 E31.93501
G1 X-17.773 Y31.034 E31.95449
G1 X-17.791 Y30.54 E31.98704
G1 X-17.792 Y-30.5 E36.00683
G1 X-17.776 Y-30.969 E36.03774
G1 X-17.747 Y-31.398 E36.06605
G1 X-17.657 Y-32.139 E36.11521
G1 X-17.558 Y-32.607 E36.14671
G1 X-17.476 Y-32.937 E36.16911
G1 X-17.244 Y-33.687 E36.22081
G1 X-17.123 Y-34.012 E36.24364
G1 X-16.825 Y-34.697 E36.29284
G1 X-16.721 Y-34.905 E36.30815
G1 X-16.424 Y-35.44 E36.34845
G1 X-16.304 Y-35.635 E36.36353
G1 X-15.91 Y-36.208 E36.40932
G1 X-15.746 Y-36.423 E36.42713
G1 X-15.283 Y-36.969 E36.47428
G1 X-15.032 Y-37.236 E36.49841
G1 X-14.267 Y-37.937 E36.56674
G1 X-14.041 Y-38.115 E36.58569
G1 X-13.452 Y-38.531 E36.63317
G1 X-13.156 Y-38.718 E36.65623
G1 X-12.339 Y-39.161 E36.71744
G1 X-12.027 Y-39.304 E36.74004
G1 X-11.301 Y-39.589 E36.7914
G1 X-11.079 Y-39.662 E36.80679
G1 X-10.521 Y-39.82 E36.84498
G1 X-10.299 Y-39.873 E36.86001
G1 X-9.539 Y-40.01 E36.91087
G1 X-9.192 Y-40.053 E36.9339
G1 X-8.338 Y-40.106 E36.99024
G1 X8.179 Y-40.111 E38.07797
G1 X8.59 Y-40.099 E38.10505
G1 X8.896 Y-40.081 E38.12524
G1 X9.592 Y-40.005 E38.17134
G1 X9.822 Y-39.968 E38.18669
G1 X10.441 Y-39.839 E38.22833
G1 X10.664 Y-39.782 E38.24348
G1 X11.355 Y-39.566 E38.29116
G1 X11.682 Y-39.445 E38.31412
G1 X12.361 Y-39.153 E38.3628
G1 X12.623 Y-39.023 E38.38206
G1 X13.573 Y-38.453 E38.45502
G1 X13.898 Y-38.221 E38.48132
G1 X14.482 Y-37.755 E38.53052
G1 X14.655 Y-37.601 E38.54577
G1 X15.068 Y-37.201 E38.58363
G1 X15.227 Y-37.034 E38.59882
G1 X15.659 Y-36.535 E38.64229
G1 X15.802 Y-36.353 E38.65753
G1 X16.168 Y-35.84 E38.69903
G1 X16.371 Y-35.527 E38.7236
G1 X16.743 Y-34.881 E38.77269
G1 X16.977 Y-34.369 E38.80976
G1 X17.143 Y-33.962 E38.83871
G1 X17.405 Y-33.193 E38.89221
G1 X17.466 Y-32.973 E38.90724
G1 X17.586 Y-32.466 E38.94155
G1 X17.631 Y-32.239 E38.95679
G1 X17.734 Y-31.528 E39.00411
G1 X17.759 Y-31.258 E39.02196
G1 X17.789 Y-30.616 E39.06429
G1 X17.792 Y30.5 E43.08909
G0 F3000 X17.312 Y30.5
G1 F1500 X17.297 Y30.937 E43.11788
G1 X17.268 Y31.366 E43.1462
G1 X17.18 Y32.08 E43.19357
G1 X17.092 Y32.492 E43.22132
G1 X17.01 Y32.822 E43.24371
G1 X16.794 Y33.52 E43.29183
G1 X16.673 Y33.845 E43.31467
G1 X16.401 Y34.471 E43.35962
G1 X16.298 Y34.678 E43.37484
G1 X16.011 Y35.195 E43.41378
G1 X15.89 Y35.391 E43.42895
G1 X15.528 Y35.917 E43.471
G1 X15.364 Y36.132 E43.48881
G1 X14.933 Y36.64 E43.53268
G1 X14.682 Y36.907 E43.55682
G1 X13.97 Y37.56 E43.62044
G1 X13.744 Y37.738 E43.63938
G1 X13.196 Y38.125 E43.68357
G1 X12.9 Y38.312 E43.70662
G1 X12.139 Y38.725 E43.76364
G1 X11.827 Y38.868 E43.78625
G1 X11.151 Y39.133 E43.83406
G1 X10.929 Y39.206 E43.84945
G1 X10.41 Y39.353 E43.88497
G1 X10.188 Y39.406 E43.90001
G1 X9.48 Y39.534 E43.94739
G1 X9.133 Y39.577 E43.97041
G1 X8.338 Y39.626 E44.02287
G1 X-8.179 Y39.631 E45.1106
G1 X-8.61 Y39.617 E45.13899
G1 X-9.032 Y39.589 E45.16685
G1 X-9.746 Y39.501 E45.21422
G1 X-10.147 Y39.416 E45.24122
G1 X-10.465 Y39.338 E45.26278
G1 X-11.125 Y39.139 E45.30818
G1 X-11.443 Y39.024 E45.33045
G1 X-12.033 Y38.777 E45.37257
G1 X-12.236 Y38.68 E45.38738
G1 X-12.894 Y38.317 E45.43687
G1 X-13.18 Y38.137 E45.45913
G1 X-13.74 Y37.741 E45.5043
G1 X-13.915 Y37.603 E45.51897
G1 X-14.324 Y37.252 E45.55447
G1 X-14.489 Y37.098 E45.56933
G1 X-14.847 Y36.737 E45.60281
G1 X-14.999 Y36.571 E45.61763
G1 X-15.376 Y36.12 E45.65634
G1 X-15.513 Y35.94 E45.67124
G1 X-15.895 Y35.38 E45.71588
G1 X-16.07 Y35.092 E45.73808
G1 X-16.453 Y34.361 E45.79242
G1 X-16.59 Y34.053 E45.81462
G1 X-16.889 Y33.235 E45.87198
G1 X-16.983 Y32.913 E45.89407
G1 X-17.141 Y32.241 E45.93953
G1 X-17.188 Y31.979 E45.95706
G1 X-17.274 Y31.295 E46.00246
G1 X-17.295 Y31 E46.02194
G1 X-17.311 Y30.54 E46.05225
G1 X-17.312 Y-30.5 E50.07204
G1 X-17.297 Y-30.937 E50.10084
G1 X-17.268 Y-31.366 E50.12915
G1 X-17.18 Y-32.08 E50.17653
G1 X-17.092 Y-32.492 E50.20427
G1 X-17.01 Y-32.822 E50.22667
G1 X-16.794 Y-33.52 E50.27478
G1 X-16.673 Y-33.845 E50.29762
G1 X-16.396 Y-34.482 E50.34337
G1 X-16.292 Y-34.69 E50.35868
G1 X-16.015 Y-35.188 E50.39621
G1 X-15.895 Y-35.383 E50.41129
G1 X-15.528 Y-35.917 E50.45396
G1 X-15.364 Y-36.132 E50.47177
G1 X-14.933 Y-36.64 E50.51564
G1 X-14.682 Y-36.907 E50.53977
G1 X-13.97 Y-37.56 E50.60339
G1 X-13.744 Y-37.738 E50.62234
G1 X-13.196 Y-38.125 E50.66652
G1 X-12.9 Y-38.312 E50.68958
G1 X-12.139 Y-38.725 E50.7466
G1 X-11.827 Y-38.868 E50.7692
G1 X-11.151 Y-39.133 E50.81702
G1 X-10.929 Y-39.206 E50.83241
G1 X-10.41 Y-39.353 E50.86793
G1 X-10.188 Y-39.406 E50.88296
G1 X-9.48 Y-39.534 E50.93034
G1 X-9.133 Y-39.577 E50.95337
G1 X-8.338 Y-39.626 E51.00582
G1 X8.179 Y-39.631 E52.09355
G1 X8.562 Y-39.62 E52.11878
G1 X8.868 Y-39.602 E52.13897
G1 X9.516 Y-39.531 E52.1819
G1 X9.746 Y-39.494 E52.19724
G1 X10.322 Y-39.374 E52.23599
G1 X10.545 Y-39.317 E52.25115
G1 X11.189 Y-39.116 E52.29557
G1 X11.516 Y-38.995 E52.31854
G1 X12.147 Y-38.723 E52.36379
G1 X12.409 Y-38.593 E52.38305
G1 X13.294 Y-38.062 E52.45102
G1 X13.619 Y-37.83 E52.47731
G1 X14.163 Y-37.396 E52.52314
G1 X14.336 Y-37.242 E52.53839
G1 X14.72 Y-36.87 E52.5736
G1 X14.879 Y-36.703 E52.58879
G1 X15.281 Y-36.238 E52.62927
G1 X15.424 Y-36.056 E52.64451
G1 X15.766 Y-35.579 E52.68316
G1 X15.969 Y-35.266 E52.70773
G1 X16.326 Y-34.641 E52.75513
G1 X16.532 Y-34.187 E52.78796
G1 X16.698 Y-33.78 E52.81691
G1 X16.942 Y-33.064 E52.86673
G1 X17.003 Y-32.844 E52.88176
G1 X17.115 Y-32.373 E52.91364
G1 X17.16 Y-32.146 E52.92888
G1 X17.256 Y-31.483 E52.973
G1 X17.281 Y-31.213 E52.99086
G1 X17.309 Y-30.616 E53.03022
G1 X17.312 Y30.5 E57.05501
G0 F3000 X16.832 Y30.5
G1 F1500 X16.818 Y30.905 E57.0817
G1 X16.789 Y31.334 E57.11002
G1 X16.703 Y32.021 E57.15561
G1 X16.626 Y32.376 E57.17954
G1 X16.544 Y32.706 E57.20193
G1 X16.344 Y33.352 E57.24646
G1 X16.223 Y33.677 E57.2693
G1 X15.972 Y34.257 E57.31092
G1 X15.869 Y34.464 E57.32615
G1 X15.602 Y34.943 E57.36226
G1 X15.481 Y35.139 E57.37743
G1 X15.147 Y35.626 E57.41632
G1 X14.983 Y35.841 E57.43413
G1 X14.584 Y36.312 E57.47478
G1 X14.333 Y36.579 E57.49891
G1 X13.673 Y37.183 E57.55783
G1 X13.447 Y37.361 E57.57677
G1 X12.94 Y37.72 E57.61769
G1 X12.644 Y37.907 E57.64074
G1 X11.939 Y38.288 E57.69352
G1 X11.627 Y38.431 E57.71612
G1 X11.001 Y38.677 E57.76041
G1 X10.779 Y38.75 E57.7758
G1 X10.298 Y38.886 E57.80872
G1 X10.076 Y38.939 E57.82375
G1 X9.421 Y39.057 E57.86758
G1 X9.074 Y39.1 E57.89061
G1 X8.338 Y39.146 E57.93917
G1 X-8.179 Y39.151 E59.0269
G1 X-8.578 Y39.138 E59.05319
G1 X-9 Y39.11 E59.08104
G1 X-9.687 Y39.024 E59.12664
G1 X-10.35 Y38.872 E59.17143
G1 X-10.961 Y38.687 E59.21347
G1 X-11.279 Y38.572 E59.23574
G1 X-11.826 Y38.344 E59.27477
G1 X-12.029 Y38.247 E59.28959
G1 X-12.638 Y37.911 E59.33539
G1 X-12.924 Y37.731 E59.35765
G1 X-13.443 Y37.364 E59.39951
G1 X-13.618 Y37.226 E59.41418
G1 X-13.997 Y36.901 E59.44706
G1 X-14.162 Y36.747 E59.46193
G1 X-14.493 Y36.413 E59.49289
