;FLAVOR:Marlin
;TIME:5917
;Filament used: 9.33362m
;Layer height: 0.3
;MINX:-51.751
;MINY:-41.071
;MINZ:0.3
;MAXX:51.748
;MAXY:41.071
;MAXZ:15
;Generated with Cura_SteamEngine 5.2.2
M82 ;absolute extrusion mode
M140 S0
M104 S200 T0
M104 S0 T1
M107
G90
G28
M132 X Y Z A B
G1 Z50.00 F400
G161 X Y F3300
M6 T0
M907 X100 Y100 Z40 A80 B20
M108 T0
G1 Z.20 F400
G92 E0
G92 E0
G1 F1800 E-1.3
;LAYER_COUNT:50
;LAYER:0
M106 S255
G0 F3000 X0.027 Y-40.662 Z0.3
;TYPE:SKIRT
G1 F1800 E0
G1 F1500 X1.028 Y-40.886 E0.06755
G1 X1.813 Y-41.017 E0.11996
G1 X2.725 Y-41.07 E0.18012
G1 X19.179 Y-41.071 E1.2637
G1 X19.973 Y-41.031 E1.31606
G1 X20.438 Y-40.97 E1.34694
G1 X21.183 Y-40.85 E1.39664
G1 X21.962 Y-40.684 E1.44909
G1 X22.028 Y-40.662 E1.45367
G1 X23.028 Y-40.886 E1.52116
G1 X23.813 Y-41.017 E1.57357
G1 X24.725 Y-41.07 E1.63373
G1 X41.179 Y-41.071 E2.71731
G1 X41.973 Y-41.031 E2.76967
G1 X42.438 Y-40.97 E2.80055
G1 X43.183 Y-40.85 E2.85025
G1 X43.962 Y-40.684 E2.9027
G1 X44.922 Y-40.362 E2.96938
G1 X45.499 Y-40.126 E3.01043
G1 X46.22 Y-39.788 E3.06287
G1 X46.971 Y-39.333 E3.1207
G1 X47.148 Y-39.212 E3.13482
G1 X47.729 Y-38.774 E3.18274
G1 X48.194 Y-38.389 E3.22249
G1 X48.781 Y-37.852 E3.27489
G1 X49.31 Y-37.258 E3.32727
G1 X49.716 Y-36.708 E3.37229
G1 X49.997 Y-36.29 E3.40546
G1 X50.337 Y-35.741 E3.44798
G1 X50.71 Y-35.038 E3.50039
G1 X50.956 Y-34.45 E3.54237
G1 X51.202 Y-33.789 E3.58881
G1 X51.441 Y-33.031 E3.64115
G1 X51.604 Y-32.252 E3.69357
G1 X51.656 Y-31.854 E3.72
G1 X51.704 Y-31.397 E3.75026
G1 X51.747 Y-30.57 E3.8048
G1 X51.748 Y30.558 E7.83039
G1 X51.708 Y31.353 E7.88281
G1 X51.642 Y31.852 E7.91595
G1 X51.532 Y32.516 E7.96028
G1 X51.362 Y33.294 E8.01272
G1 X51.085 Y34.13 E8.07072
G1 X50.873 Y34.667 E8.10874
G1 X50.544 Y35.392 E8.16117
G1 X50.093 Y36.156 E8.2196
G1 X49.814 Y36.574 E8.25269
G1 X49.34 Y37.213 E8.30509
G1 X48.988 Y37.612 E8.34013
G1 X48.788 Y37.824 E8.35932
G1 X48.214 Y38.375 E8.41172
G1 X47.668 Y38.807 E8.45757
G1 X47.376 Y39.025 E8.48157
G1 X46.729 Y39.487 E8.53392
G1 X46.038 Y39.883 E8.58637
G1 X45.342 Y40.195 E8.6366
G1 X44.742 Y40.43 E8.67904
G1 X43.988 Y40.682 E8.73139
G1 X43.01 Y40.89 E8.79724
G1 X42.373 Y40.984 E8.83964
G1 X41.217 Y41.069 E8.91598
G1 X24.821 Y41.07 E9.99574
G1 X24.171 Y41.043 E10.03858
G1 X23.77 Y41.01 E10.06508
G1 X22.982 Y40.905 E10.11743
G1 X22.207 Y40.722 E10.16987
G1 X22.038 Y40.665 E10.18162
G1 X21.988 Y40.682 E10.18509
G1 X21.01 Y40.89 E10.25094
G1 X20.373 Y40.984 E10.29335
G1 X19.217 Y41.069 E10.36968
G1 X2.821 Y41.07 E11.44944
G1 X2.171 Y41.043 E11.49228
G1 X1.77 Y41.01 E11.51878
G1 X0.982 Y40.905 E11.57113
G1 X0.207 Y40.722 E11.62357
G1 X0.038 Y40.665 E11.63532
G1 X-0.012 Y40.682 E11.6388
G1 X-.99 Y40.89 E11.70464
G1 X-1.627 Y40.984 E11.74705
G1 X-2.783 Y41.069 E11.82338
G1 X-19.179 Y41.07 E12.90314
G1 X-19.829 Y41.043 E12.94598
G1 X-20.23 Y41.01 E12.97248
G1 X-21.018 Y40.905 E13.02483
G1 X-21.793 Y40.722 E13.07727
G1 X-21.962 Y40.665 E13.08902
G1 X-22.012 Y40.682 E13.0925
G1 X-22.99 Y40.89 E13.15834
G1 X-23.627 Y40.984 E13.20075
G1 X-24.782 Y41.069 E13.27702
G1 X-41.178 Y41.071 E14.35678
G1 X-41.848 Y41.043 E14.40094
G1 X-42.249 Y41.009 E14.42744
G1 X-43.038 Y40.902 E14.47988
G1 X-43.811 Y40.716 E14.53223
G1 X-44.362 Y40.532 E14.57049
G1 X-44.797 Y40.369 E14.60108
G1 X-45.395 Y40.17 E14.64259
G1 X-46.122 Y39.845 E14.69503
G1 X-46.812 Y39.449 E14.74742
G1 X-47.268 Y39.133 E14.78396
G1 X-47.576 Y38.903 E14.80927
G1 X-48.11 Y38.466 E14.85471
G1 X-48.305 Y38.292 E14.87192
G1 X-48.834 Y37.775 E14.92064
G1 X-49.097 Y37.492 E14.94608
G1 X-49.608 Y36.882 E14.99848
G1 X-50.056 Y36.225 E15.05085
G1 X-50.268 Y35.855 E15.07893
G1 X-50.639 Y35.166 E15.13047
G1 X-50.981 Y34.447 E15.1829
G1 X-51.333 Y33.395 E15.25596
G1 X-51.466 Y32.881 E15.29092
G1 X-51.627 Y32.102 E15.34331
G1 X-51.693 Y31.535 E15.3809
G1 X-51.725 Y31.139 E15.40706
G1 X-51.751 Y30.501 E15.44911
G1 X-51.75 Y-30.499 E19.46627
G1 X-51.693 Y-31.45 E19.52901
G1 X-51.617 Y-32.014 E19.56649
G1 X-51.516 Y-32.621 E19.60701
G1 X-51.346 Y-33.398 E19.65939
G1 X-51.099 Y-34.155 E19.71183
G1 X-50.762 Y-34.913 E19.76646
G1 X-50.475 Y-35.477 E19.80813
G1 X-50.114 Y-36.118 E19.85658
G1 X-49.675 Y-36.782 E19.909
G1 X-48.978 Y-37.606 E19.98008
G1 X-48.54 Y-38.057 E20.02148
G1 X-47.806 Y-38.723 E20.08675
G1 X-47.646 Y-38.851 E20.10024
G1 X-47 Y-39.317 E20.1527
G1 X-46.268 Y-39.737 E20.20828
G1 X-45.67 Y-40.039 E20.25239
G1 X-44.943 Y-40.361 E20.30476
G1 X-44.187 Y-40.609 E20.35715
G1 X-43.797 Y-40.705 E20.3836
G1 X-42.972 Y-40.886 E20.43923
G1 X-42.187 Y-41.017 E20.49164
G1 X-41.275 Y-41.07 E20.5518
G1 X-24.821 Y-41.07 E21.63538
G1 X-24.026 Y-41.03 E21.6878
G1 X-23.572 Y-40.971 E21.71795
G1 X-22.827 Y-40.852 E21.76763
G1 X-22.048 Y-40.687 E21.82007
G1 X-21.973 Y-40.662 E21.82528
G1 X-20.972 Y-40.886 E21.89283
G1 X-20.187 Y-41.017 E21.94524
G1 X-19.275 Y-41.07 E22.0054
G1 X-2.821 Y-41.07 E23.08898
G1 X-2.026 Y-41.03 E23.1414
G1 X-1.572 Y-40.971 E23.17155
G1 X-.827 Y-40.852 E23.22124
G1 X-0.048 Y-40.687 E23.27368
G1 X0.027 Y-40.662 E23.27888
G0 F3000 X-.148 Y-40.217
G1 F1500 X0.035 Y-40.155 E23.29161
G1 X0.306 Y-40.236 E23.31023
G1 X1.131 Y-40.417 E23.36586
G1 X1.891 Y-40.543 E23.41659
G1 X2.725 Y-40.59 E23.4716
G1 X19.179 Y-40.591 E24.55518
G1 X19.949 Y-40.551 E24.60595
G1 X20.362 Y-40.496 E24.63339
G1 X21.107 Y-40.376 E24.68309
G1 X21.861 Y-40.214 E24.73388
G1 X22.035 Y-40.155 E24.74597
G1 X22.306 Y-40.236 E24.7646
G1 X23.131 Y-40.417 E24.82022
G1 X23.891 Y-40.543 E24.87096
G1 X24.725 Y-40.59 E24.92597
G1 X41.179 Y-40.591 E26.00955
G1 X41.949 Y-40.551 E26.06032
G1 X42.362 Y-40.496 E26.08776
G1 X43.107 Y-40.376 E26.13746
G1 X43.861 Y-40.214 E26.18824
G1 X44.741 Y-39.917 E26.24941
G1 X45.318 Y-39.681 E26.29046
G1 X46.015 Y-39.353 E26.34119
G1 X46.7 Y-38.937 E26.39397
G1 X46.877 Y-38.816 E26.40809
G1 X47.423 Y-38.405 E26.45309
G1 X47.888 Y-38.02 E26.49285
G1 X48.456 Y-37.498 E26.54365
G1 X48.966 Y-36.92 E26.59442
G1 X49.318 Y-36.44 E26.63362
G1 X49.599 Y-36.022 E26.66679
G1 X49.925 Y-35.495 E26.70759
G1 X50.285 Y-34.813 E26.75838
G1 X50.506 Y-34.283 E26.7962
G1 X50.752 Y-33.622 E26.84264
G1 X50.983 Y-32.886 E26.89344
G1 X51.178 Y-31.804 E26.96585
G1 X51.226 Y-31.347 E26.99611
G1 X51.267 Y-30.57 E27.04735
G1 X51.268 Y30.558 E31.07294
G1 X51.228 Y31.328 E31.12371
G1 X51.168 Y31.774 E31.15335
G1 X51.058 Y32.438 E31.19767
G1 X50.893 Y33.191 E31.24844
G1 X50.638 Y33.954 E31.30142
G1 X50.426 Y34.491 E31.33944
G1 X50.106 Y35.193 E31.39025
G1 X49.694 Y35.889 E31.44351
G1 X49.415 Y36.307 E31.47661
G1 X48.954 Y36.926 E31.52743
G1 X48.639 Y37.282 E31.55874
G1 X48.439 Y37.494 E31.57793
G1 X47.881 Y38.027 E31.62875
G1 X47.387 Y38.418 E31.67024
G1 X47.078 Y38.649 E31.69565
G1 X46.449 Y39.096 E31.74646
G1 X45.778 Y39.476 E31.79725
G1 X45.167 Y39.748 E31.84129
G1 X44.567 Y39.983 E31.88373
G1 X43.836 Y40.226 E31.93446
G1 X42.94 Y40.415 E31.99476
G1 X42.303 Y40.509 E32.03716
G1 X41.217 Y40.589 E32.10888
G1 X24.821 Y40.59 E33.18864
G1 X24.211 Y40.565 E33.22884
G1 X23.81 Y40.532 E33.25534
G1 X23.045 Y40.429 E33.30617
G1 X22.296 Y40.247 E33.35693
G1 X22.036 Y40.16 E33.37499
G1 X21.836 Y40.226 E33.38886
G1 X20.94 Y40.415 E33.44916
G1 X20.303 Y40.509 E33.49157
G1 X19.217 Y40.589 E33.56328
G1 X2.821 Y40.59 E34.64304
G1 X2.211 Y40.565 E34.68324
G1 X1.81 Y40.532 E34.70974
G1 X1.045 Y40.429 E34.76058
G1 X0.296 Y40.247 E34.81134
G1 X0.036 Y40.16 E34.82939
G1 X-.164 Y40.226 E34.84326
G1 X-1.06 Y40.415 E34.90357
G1 X-1.697 Y40.509 E34.94597
G1 X-2.783 Y40.589 E35.01768
G1 X-19.179 Y40.59 E36.09744
G1 X-19.789 Y40.565 E36.13765
G1 X-20.19 Y40.532 E36.16414
G1 X-20.955 Y40.429 E36.21498
G1 X-21.704 Y40.247 E36.26574
G1 X-21.964 Y40.16 E36.28379
G1 X-22.164 Y40.226 E36.29766
G1 X-23.06 Y40.415 E36.35797
G1 X-23.697 Y40.509 E36.40037
G1 X-24.782 Y40.589 E36.47202
G1 X-41.178 Y40.591 E37.55178
G1 X-41.808 Y40.564 E37.59331
G1 X-42.209 Y40.53 E37.61981
G1 X-42.973 Y40.426 E37.67059
G1 X-43.722 Y40.242 E37.72138
G1 X-44.193 Y40.083 E37.75411
G1 X-44.639 Y39.916 E37.78548
G1 X-45.244 Y39.714 E37.82748
G1 X-45.946 Y39.396 E37.87823
G1 X-46.612 Y39.007 E37.92903
G1 X-46.981 Y38.748 E37.95872
G1 X-47.289 Y38.518 E37.98403
G1 X-47.79 Y38.108 E38.02666
G1 X-47.985 Y37.934 E38.04388
G1 X-48.482 Y37.448 E38.08965
G1 X-48.745 Y37.165 E38.1151
G1 X-49.24 Y36.573 E38.16591
G1 X-49.846 Y35.627 E38.2399
G1 X-50.217 Y34.938 E38.29143
G1 X-50.547 Y34.241 E38.34222
G1 X-50.869 Y33.275 E38.40928
G1 X-51.002 Y32.761 E38.44424
G1 X-51.156 Y32.005 E38.49505
G1 X-51.215 Y31.496 E38.52879
G1 X-51.247 Y31.1 E38.55496
G1 X-51.271 Y30.501 E38.59444
G1 X-51.27 Y-30.499 E42.6116
G1 X-51.216 Y-31.392 E42.67051
G1 X-51.143 Y-31.935 E42.70659
G1 X-51.042 Y-32.542 E42.74712
G1 X-50.876 Y-33.295 E42.7979
G1 X-50.633 Y-34.027 E42.84869
G1 X-50.334 Y-34.695 E42.89689
G1 X-50.047 Y-35.259 E42.93856
G1 X-49.821 Y-35.671 E42.96951
G1 X-49.701 Y-35.874 E42.98504
G1 X-49.274 Y-36.517 E43.03587
G1 X-48.633 Y-37.271 E43.10104
G1 X-48.195 Y-37.722 E43.14244
G1 X-47.506 Y-38.349 E43.20379
G1 X-47.346 Y-38.477 E43.21729
G1 X-46.719 Y-38.927 E43.26811
G1 X-46.052 Y-39.308 E43.3187
G1 X-45.454 Y-39.61 E43.36282
G1 X-44.748 Y-39.922 E43.41365
G1 X-43.694 Y-40.236 E43.48607
G1 X-42.869 Y-40.417 E43.5417
G1 X-42.109 Y-40.543 E43.59243
G1 X-41.275 Y-40.59 E43.64744
G1 X-24.821 Y-40.59 E44.73102
G1 X-24.051 Y-40.55 E44.7818
G1 X-23.647 Y-40.497 E44.80863
G1 X-22.902 Y-40.378 E44.85831
G1 X-22.148 Y-40.217 E44.90909
G1 X-21.965 Y-40.155 E44.92181
G1 X-21.694 Y-40.236 E44.94044
G1 X-20.869 Y-40.417 E44.99606
G1 X-20.109 Y-40.543 E45.04679
G1 X-19.275 Y-40.59 E45.1018
G1 X-2.821 Y-40.59 E46.18538
G1 X-2.051 Y-40.55 E46.23616
G1 X-1.647 Y-40.497 E46.26299
G1 X-.902 Y-40.378 E46.31268
G1 X-.148 Y-40.217 E46.36345
G0 F3000 X-.249 Y-39.747
G1 F1500 X0.026 Y-39.654 E46.38257
G1 X0.408 Y-39.767 E46.4088
G1 X1.233 Y-39.948 E46.46443
G1 X1.97 Y-40.069 E46.51361
G1 X2.725 Y-40.11 E46.5634
G1 X19.179 Y-40.111 E47.64698
G1 X20.286 Y-40.022 E47.72012
G1 X21.031 Y-39.902 E47.76982
G1 X21.76 Y-39.745 E47.81892
G1 X22.027 Y-39.654 E47.8375
G1 X22.408 Y-39.767 E47.86367
G1 X23.233 Y-39.948 E47.91929
G1 X23.97 Y-40.069 E47.96848
G1 X24.725 Y-40.11 E48.01827
G1 X41.179 Y-40.111 E49.10185
G1 X42.286 Y-40.022 E49.17499
G1 X43.031 Y-39.902 E49.22468
G1 X43.76 Y-39.745 E49.27379
G1 X44.559 Y-39.473 E49.32938
G1 X45.136 Y-39.237 E49.37043
G1 X45.81 Y-38.918 E49.41954
G1 X46.429 Y-38.541 E49.46727
G1 X46.606 Y-38.42 E49.48139
G1 X47.117 Y-38.035 E49.52352
G1 X47.582 Y-37.65 E49.56328
G1 X48.13 Y-37.144 E49.6124
G1 X48.621 Y-36.583 E49.66149
G1 X48.919 Y-36.172 E49.69493
G1 X49.2 Y-35.754 E49.7281
G1 X49.513 Y-35.25 E49.76717
G1 X49.859 Y-34.589 E49.8163
G1 X50.056 Y-34.116 E49.85004
G1 X50.302 Y-33.455 E49.89649
G1 X50.524 Y-32.743 E49.9456
G1 X50.701 Y-31.754 E50.01177
G1 X50.749 Y-31.297 E50.04203
G1 X50.787 Y-30.57 E50.08997
G1 X50.788 Y30.558 E54.11556
G1 X50.748 Y31.303 E54.16469
G1 X50.694 Y31.696 E54.19082
G1 X50.584 Y32.36 E54.23514
G1 X50.423 Y33.088 E54.28424
G1 X50.192 Y33.778 E54.33216
G1 X49.98 Y34.315 E54.37018
G1 X49.669 Y34.993 E54.41931
G1 X49.295 Y35.623 E54.46755
G1 X49.016 Y36.041 E54.50065
G1 X48.569 Y36.638 E54.54977
G1 X48.29 Y36.953 E54.57748
G1 X48.09 Y37.165 E54.59667
G1 X47.549 Y37.679 E54.64581
G1 X47.106 Y38.029 E54.68299
G1 X46.779 Y38.273 E54.70986
G1 X46.171 Y38.704 E54.75894
G1 X45.52 Y39.068 E54.80806
G1 X44.992 Y39.301 E54.84607
G1 X44.392 Y39.536 E54.8885
G1 X43.684 Y39.77 E54.93761
G1 X42.87 Y39.94 E54.99237
G1 X42.233 Y40.034 E55.03478
G1 X41.217 Y40.109 E55.10187
G1 X24.821 Y40.11 E56.18163
G1 X24.25 Y40.087 E56.21926
G1 X23.849 Y40.054 E56.24576
G1 X23.11 Y39.953 E56.29488
G1 X22.386 Y39.773 E56.34401
G1 X22.036 Y39.654 E56.36835
G1 X21.684 Y39.77 E56.39276
G1 X20.87 Y39.94 E56.44752
G1 X20.233 Y40.034 E56.48993
G1 X19.217 Y40.109 E56.55702
G1 X2.821 Y40.11 E57.63678
G1 X2.25 Y40.087 E57.67441
G1 X1.849 Y40.054 E57.70091
G1 X1.11 Y39.953 E57.75003
G1 X0.386 Y39.773 E57.79916
G1 X0.036 Y39.654 E57.8235
G1 X-.316 Y39.77 E57.84791
G1 X-1.13 Y39.94 E57.90267
G1 X-1.767 Y40.034 E57.94508
G1 X-2.783 Y40.109 E58.01217
G1 X-19.179 Y40.11 E59.09193
G1 X-19.75 Y40.087 E59.12956
G1 X-20.151 Y40.054 E59.15606
G1 X-20.89 Y39.953 E59.20518
G1 X-21.614 Y39.773 E59.25431
G1 X-21.964 Y39.654 E59.27865
G1 X-22.316 Y39.77 E59.30306
G1 X-23.13 Y39.94 E59.35782
G1 X-23.767 Y40.034 E59.40023
G1 X-24.782 Y40.109 E59.46725
G1 X-41.178 Y40.111 E60.54701
G1 X-41.767 Y40.086 E60.58583
G1 X-42.168 Y40.052 E60.61234
G1 X-42.907 Y39.949 E60.66147
G1 X-43.63 Y39.768 E60.71056
G1 X-44.025 Y39.633 E60.73805
G1 X-44.467 Y39.467 E60.76914
G1 X-45.091 Y39.258 E60.81248
G1 X-45.769 Y38.947 E60.8616
G1 X-46.693 Y38.364 E60.93355
G1 X-47.001 Y38.134 E60.95887
G1 X-47.471 Y37.75 E60.99883
G1 X-47.666 Y37.576 E61.01605
G1 X-48.13 Y37.121 E61.05884
G1 X-48.393 Y36.838 E61.08428
G1 X-48.871 Y36.265 E61.13343
G1 X-49.423 Y35.4 E61.201
G1 X-49.794 Y34.711 E61.25253
G1 X-50.112 Y34.036 E61.30167
G1 X-50.404 Y33.155 E61.36279
G1 X-50.537 Y32.641 E61.39776
G1 X-50.685 Y31.909 E61.44694
G1 X-50.736 Y31.458 E61.47683
G1 X-50.768 Y31.062 E61.50299
G1 X-50.791 Y30.501 E61.53997
G1 X-50.79 Y-30.499 E65.55713
G1 X-50.74 Y-31.335 E65.61228
G1 X-50.67 Y-31.856 E65.6469
G1 X-50.569 Y-32.463 E65.68742
G1 X-50.407 Y-33.192 E65.7366
G1 X-50.168 Y-33.898 E65.78569
G1 X-49.906 Y-34.478 E65.8276
G1 X-49.619 Y-35.042 E65.86928
G1 X-49.287 Y-35.63 E65.91375
G1 X-48.874 Y-36.251 E65.96286
G1 X-48.289 Y-36.937 E66.02223
G1 X-47.851 Y-37.388 E66.06363
G1 X-47.206 Y-37.974 E66.12102
G1 X-47.046 Y-38.102 E66.13452
G1 X-46.439 Y-38.536 E66.18366
G1 X-45.836 Y-38.88 E66.22938
G1 X-45.238 Y-39.182 E66.27349
G1 X-44.555 Y-39.482 E66.32262
G1 X-43.592 Y-39.767 E66.38876
G1 X-42.767 Y-39.948 E66.44438
G1 X-42.03 Y-40.069 E66.49357
G1 X-41.275 Y-40.11 E66.54336
G1 X-24.821 Y-40.11 E67.62694
G1 X-23.723 Y-40.023 E67.69947
G1 X-22.978 Y-39.904 E67.74916
G1 X-22.249 Y-39.747 E67.79827
G1 X-21.974 Y-39.654 E67.81739
G1 X-21.592 Y-39.767 E67.84362
G1 X-20.767 Y-39.948 E67.89924
G1 X-20.03 Y-40.069 E67.94843
G1 X-19.275 Y-40.11 E67.99822
G1 X-2.821 Y-40.11 E69.0818
G1 X-1.723 Y-40.023 E69.15434
G1 X-.978 Y-39.904 E69.20402
G1 X-.249 Y-39.747 E69.25313
G0 F3000 X-.351 Y-39.277
G1 F1500 X0.015 Y-39.152 E69.2786
G1 X0.511 Y-39.298 E69.31265
G1 X1.336 Y-39.479 E69.36827
G1 X2.047 Y-39.594 E69.4157
G1 X2.725 Y-39.63 E69.46042
G1 X19.179 Y-39.631 E70.54399
G1 X20.209 Y-39.549 E70.61204
G1 X20.954 Y-39.429 E70.66173
G1 X21.658 Y-39.275 E70.70919
G1 X22.015 Y-39.153 E70.73404
G1 X22.511 Y-39.298 E70.76807
G1 X23.336 Y-39.479 E70.82369
G1 X24.047 Y-39.594 E70.87112
G1 X24.725 Y-39.63 E70.91584
G1 X41.179 Y-39.631 E71.99942
G1 X42.209 Y-39.549 E72.06746
G1 X42.954 Y-39.429 E72.11715
G1 X43.658 Y-39.275 E72.16461
G1 X44.377 Y-39.029 E72.21466
G1 X44.954 Y-38.793 E72.25571
G1 X45.604 Y-38.484 E72.30311
G1 X46.158 Y-38.144 E72.34591
G1 X46.335 Y-38.023 E72.36003
G1 X46.811 Y-37.665 E72.39926
G1 X47.276 Y-37.28 E72.43901
G1 X47.804 Y-36.791 E72.48641
G1 X48.274 Y-36.247 E72.53375
G1 X48.521 Y-35.904 E72.56159
G1 X48.802 Y-35.486 E72.59476
G1 X49.1 Y-35.004 E72.63207
G1 X49.434 Y-34.366 E72.6795
G1 X49.606 Y-33.948 E72.70927
G1 X49.852 Y-33.287 E72.75571
G1 X50.065 Y-32.6 E72.80308
G1 X50.224 Y-31.704 E72.86301
G1 X50.272 Y-31.247 E72.89327
G1 X50.307 Y-30.57 E72.93791
G1 X50.308 Y30.558 E76.9635
G1 X50.221 Y31.617 E77.03348
G1 X50.111 Y32.281 E77.0778
G1 X49.954 Y32.983 E77.12517
G1 X49.745 Y33.601 E77.16814
G1 X49.533 Y34.138 E77.20616
G1 X49.232 Y34.792 E77.25357
G1 X48.896 Y35.356 E77.2968
G1 X48.617 Y35.774 E77.3299
G1 X48.185 Y36.35 E77.37731
G1 X47.741 Y36.836 E77.42066
G1 X47.218 Y37.331 E77.46809
G1 X46.824 Y37.64 E77.50106
G1 X46.481 Y37.897 E77.52929
G1 X45.893 Y38.312 E77.57668
G1 X45.263 Y38.66 E77.62408
G1 X44.817 Y38.854 E77.65611
G1 X44.217 Y39.089 E77.69855
G1 X43.534 Y39.314 E77.7459
G1 X42.8 Y39.466 E77.79527
G1 X42.163 Y39.56 E77.83767
G1 X41.217 Y39.629 E77.90014
G1 X24.821 Y39.63 E78.97989
G1 X24.29 Y39.608 E79.01489
G1 X23.889 Y39.575 E79.04139
